<?xml version="1.0" encoding="UTF-8"?>
<map version="1.10" tiledversion="1.12.0" orientation="orthogonal" renderorder="right-down" width="30" height="30" tilewidth="16" tileheight="16" infinite="0" nextlayerid="5" nextobjectid="1">
 <tileset firstgid="1" source="Room_Builder_Office_16x16.tsx"/>
 <tileset firstgid="225" source="Modern_Office_16x16.tsx"/>
 <layer id="1" name="Bottom" width="30" height="30">
  <data encoding="csv">
24,81,82,82,82,82,82,82,82,82,82,82,82,82,82,82,82,82,83,26,0,0,0,0,0,0,0,0,0,0,
40,97,98,98,98,98,98,98,98,98,98,98,98,98,98,98,98,98,99,42,0,0,0,0,0,0,0,0,0,0,
40,94,95,95,95,95,95,95,95,95,95,95,95,95,95,95,95,95,95,42,0,0,0,0,0,0,0,0,0,0,
40,110,111,111,111,111,111,111,111,111,111,111,111,111,111,111,111,111,111,42,0,0,0,0,0,0,0,0,0,0,
40,110,111,111,111,111,111,111,111,111,111,111,111,111,111,111,111,111,111,42,0,0,0,0,0,0,0,0,0,0,
40,110,111,111,111,111,111,111,111,111,111,111,111,111,111,111,111,111,111,42,0,0,0,0,0,0,0,0,0,0,
40,110,111,111,111,111,111,111,111,111,108,108,108,108,108,108,108,111,111,42,0,0,0,0,0,0,0,0,0,0,
40,110,111,111,111,111,111,111,111,111,111,111,111,111,111,111,111,111,111,42,0,0,0,0,0,0,0,0,0,0,
40,110,111,111,111,111,111,111,111,111,111,111,111,111,111,111,111,111,111,42,0,0,0,0,0,0,0,0,0,0,
40,110,111,111,111,111,111,111,111,111,111,111,111,111,111,111,111,111,111,42,0,0,0,0,0,0,0,0,0,0,
40,110,111,111,111,111,111,111,111,111,111,111,111,111,111,111,111,111,111,42,0,0,0,0,0,0,0,0,0,0,
40,110,111,111,111,111,111,111,111,111,111,111,111,111,111,111,111,111,111,42,0,0,0,0,0,0,0,0,0,0,
40,110,111,111,111,111,111,111,111,111,111,111,111,111,111,111,111,111,111,42,0,0,0,0,0,0,0,0,0,0,
40,110,111,111,111,111,111,111,111,111,111,111,111,111,111,111,111,111,111,42,0,0,0,0,0,0,0,0,0,0,
40,110,111,111,111,111,108,111,111,111,111,108,111,111,111,111,111,108,111,42,0,0,0,0,0,0,0,0,0,0,
40,110,111,111,111,111,111,111,111,111,111,111,111,111,111,111,111,108,111,42,0,0,0,0,0,0,0,0,0,0,
40,110,111,111,111,111,111,111,111,111,111,111,111,111,111,111,111,111,111,42,76,0,0,0,0,0,0,0,0,0,
40,110,111,111,111,111,111,111,111,111,111,111,111,111,111,111,111,111,111,42,76,0,0,0,0,0,0,0,0,0,
40,110,111,0,111,111,111,111,9,111,111,111,111,111,111,111,108,111,111,42,0,0,0,0,0,0,0,0,0,0,
40,110,111,111,111,111,111,111,111,111,111,111,111,111,111,111,111,111,111,42,0,0,0,0,0,0,0,0,0,0,
40,110,111,111,111,111,111,111,111,111,111,111,111,111,111,111,111,111,111,42,0,0,0,0,0,0,0,0,0,0,
56,57,57,57,57,57,57,57,57,57,57,57,57,57,57,57,57,57,57,58,0,0,0,0,0,0,0,0,0,0,
0,0,0,0,0,0,0,0,0,0,0,0,0,0,0,0,0,0,0,0,0,0,0,0,0,0,0,0,0,0,
0,0,0,0,0,0,0,0,0,0,0,0,0,0,0,0,0,0,0,0,0,0,0,0,0,0,0,0,0,0,
0,0,0,0,0,0,0,0,0,0,0,0,0,0,0,0,0,0,0,0,0,0,0,0,0,0,0,0,0,0,
0,0,0,0,0,0,0,0,0,0,0,0,0,0,0,0,0,0,0,0,0,0,0,0,0,0,0,0,0,0,
0,0,0,0,0,0,0,0,0,0,0,0,0,0,0,0,0,0,0,0,0,0,0,0,0,0,0,0,0,0,
0,0,0,0,0,0,0,0,0,0,0,0,0,0,0,0,0,0,0,0,0,0,0,0,0,0,0,0,0,0,
0,0,0,0,0,0,0,0,0,0,0,0,0,0,0,0,0,0,0,0,0,0,0,0,0,0,0,0,0,0,
0,0,0,0,0,0,0,0,0,0,0,0,0,0,0,0,0,0,0,0,0,0,0,0,0,0,0,0,0,0
</data>
 </layer>
 <layer id="3" name="Middle 1" width="30" height="30">
  <data encoding="csv">
0,0,0,0,0,0,0,0,0,0,0,0,0,0,0,0,0,0,0,0,0,0,0,0,0,0,0,0,0,0,
0,706,707,708,706,707,708,706,707,708,706,707,708,706,707,708,706,707,708,0,0,0,0,0,0,0,0,0,0,0,
0,722,723,724,722,723,724,722,723,724,722,723,724,722,723,724,722,723,724,0,0,0,0,0,0,0,0,0,0,0,
0,0,0,0,0,0,0,0,0,0,0,0,0,0,0,0,0,0,0,0,0,0,0,0,0,0,0,0,0,0,
0,705,705,355,0,355,0,355,0,355,0,355,0,0,0,0,387,0,0,0,0,0,0,0,0,0,0,0,0,0,
0,705,706,371,707,371,707,371,707,371,707,371,708,0,706,707,403,707,708,0,0,0,0,0,0,0,0,0,0,0,
0,705,722,723,723,723,723,723,723,723,723,723,724,0,722,723,723,723,724,0,0,0,0,0,0,0,0,0,0,0,
0,705,705,705,0,0,0,0,0,0,0,0,0,0,0,0,0,0,0,0,0,0,0,0,0,0,0,0,0,0,
0,705,705,705,0,0,0,0,0,0,0,0,0,0,0,0,0,0,0,0,0,0,0,0,0,0,0,0,0,0,
0,706,707,708,0,0,706,707,708,0,0,706,707,708,0,0,706,707,708,0,0,0,0,0,0,0,0,0,0,0,
0,722,723,724,0,0,722,723,724,0,0,722,723,724,0,0,722,723,724,0,0,0,0,0,0,0,0,0,0,0,
705,705,705,705,705,0,0,0,0,0,0,0,0,0,0,0,0,0,0,0,0,0,0,0,0,0,0,0,0,0,
705,705,705,705,705,0,0,0,0,0,0,0,0,0,0,0,0,0,0,0,0,0,0,0,0,0,0,0,0,0,
705,706,707,708,705,0,706,707,708,0,0,706,707,708,0,0,706,707,708,0,0,0,0,0,0,0,0,0,0,0,
705,722,723,724,0,0,722,723,724,0,0,722,723,724,0,0,722,723,724,0,0,0,0,0,0,0,0,0,0,0,
0,0,0,705,0,0,0,0,0,0,0,0,0,0,0,0,0,0,0,0,0,0,0,0,0,0,0,0,0,0,
0,0,0,0,0,0,0,0,0,0,0,0,0,0,0,0,0,0,0,0,0,0,0,0,0,0,0,0,0,0,
0,706,707,708,0,0,706,707,708,0,0,706,707,708,0,0,706,707,708,0,0,0,0,0,0,0,0,0,0,0,
0,722,723,724,0,0,722,723,724,0,0,722,723,724,0,0,722,723,724,0,0,0,0,0,0,0,0,0,0,0,
0,0,0,0,0,0,0,0,0,0,0,0,0,0,0,0,0,0,0,0,0,0,0,0,0,0,0,0,0,0,
0,0,0,0,0,0,0,0,0,0,0,0,0,0,0,0,0,0,0,0,0,0,0,0,0,0,0,0,0,0,
0,0,0,0,0,0,0,0,0,0,0,0,0,0,0,0,0,0,0,0,0,0,0,0,0,0,0,0,0,0,
0,0,0,0,0,0,0,0,0,0,0,0,0,0,0,0,0,0,0,0,0,0,0,0,0,0,0,0,0,0,
0,0,0,0,0,0,0,0,0,0,0,0,0,0,0,0,0,0,0,0,0,0,0,0,0,0,0,0,0,0,
0,0,0,0,0,0,0,0,0,0,0,0,0,0,0,0,0,0,0,0,0,0,0,0,0,0,0,0,0,0,
0,0,0,0,0,0,0,0,0,0,0,0,0,0,0,0,0,0,0,0,0,0,0,0,0,0,0,0,0,0,
0,0,0,0,0,0,0,0,0,0,0,0,0,0,0,0,0,0,0,0,0,0,0,0,0,0,0,0,0,0,
0,0,0,0,0,0,0,0,0,0,0,0,0,0,0,0,0,0,0,0,0,0,0,0,0,0,0,0,0,0,
0,0,0,0,0,0,0,0,0,0,0,0,0,0,0,0,0,0,0,0,0,0,0,0,0,0,0,0,0,0,
0,0,0,0,0,0,0,0,0,0,0,0,0,0,0,0,0,0,0,0,0,0,0,0,0,0,0,0,0,0
</data>
 </layer>
 <layer id="4" name="Middle 2" width="30" height="30">
  <data encoding="csv">
0,0,0,0,0,0,0,0,0,0,0,0,0,0,0,0,0,0,0,0,0,0,0,0,0,0,0,0,0,0,
0,0,0,0,0,0,0,0,0,0,0,0,0,0,0,0,0,0,0,0,0,0,0,0,0,0,0,0,0,0,
0,0,0,0,0,0,0,0,0,0,0,0,0,0,0,0,0,0,0,0,0,0,0,0,0,0,0,0,0,0,
0,0,0,0,0,0,0,0,0,0,0,0,0,0,0,0,0,0,0,0,0,0,0,0,0,0,0,0,0,0,
0,0,0,355,0,355,0,355,0,355,0,355,0,0,0,0,481,0,0,0,0,0,0,0,0,0,0,0,0,0,
0,358,0,707,707,707,707,707,707,707,707,707,0,357,0,0,707,0,0,0,0,0,0,0,0,0,0,0,0,0,
0,374,0,354,0,354,0,354,0,354,0,354,0,373,0,0,0,0,0,0,0,0,0,0,0,0,0,0,0,0,
0,0,0,370,0,370,0,370,0,370,0,370,0,0,0,0,0,0,0,0,0,0,0,0,0,0,0,0,0,0,
0,0,0,0,0,0,0,0,0,0,0,0,0,0,0,0,0,0,0,0,0,0,0,0,0,0,0,0,0,0,
0,0,0,0,0,0,0,0,0,0,0,0,0,0,0,0,0,0,0,0,0,0,0,0,0,0,0,0,0,0,
0,0,354,0,0,0,0,354,0,0,0,0,354,0,0,0,0,354,0,0,0,0,0,0,0,0,0,0,0,0,
0,0,370,0,0,0,0,370,0,0,0,0,370,0,0,0,0,370,0,0,0,0,0,0,0,0,0,0,0,0,
0,0,0,0,0,0,0,0,0,0,0,0,0,0,0,0,0,0,0,0,0,0,0,0,0,0,0,0,0,0,
0,0,0,0,0,0,0,0,0,0,0,0,0,0,0,0,0,0,0,0,0,0,0,0,0,0,0,0,0,0,
0,0,354,0,0,0,0,354,0,0,0,0,354,0,0,0,0,354,0,0,0,0,0,0,0,0,0,0,0,0,
0,0,370,0,0,0,0,370,0,0,0,0,370,0,0,0,0,370,0,0,0,0,0,0,0,0,0,0,0,0,
0,0,0,0,0,0,0,0,0,0,0,0,0,0,0,0,0,0,0,0,0,0,0,0,0,0,0,0,0,0,
0,0,0,0,0,0,0,0,0,0,0,0,0,0,0,0,0,0,0,0,0,0,0,0,0,0,0,0,0,0,
0,0,354,0,0,0,0,354,0,0,0,0,354,0,0,0,0,354,0,0,0,0,0,0,0,0,0,0,0,0,
0,0,370,0,0,0,0,370,0,0,0,0,370,0,0,0,0,370,0,0,0,0,0,0,0,0,0,0,0,0,
0,0,0,0,0,0,0,0,0,0,0,0,0,0,0,0,0,0,0,0,0,0,0,0,0,0,0,0,0,0,
0,0,0,0,0,0,0,0,0,0,0,0,0,0,0,0,0,0,0,0,0,0,0,0,0,0,0,0,0,0,
0,0,0,0,0,0,0,0,0,0,0,0,0,0,0,0,0,0,0,0,0,0,0,0,0,0,0,0,0,0,
0,0,0,0,0,0,0,0,0,0,0,0,0,0,0,0,0,0,0,0,0,0,0,0,0,0,0,0,0,0,
0,0,0,0,0,0,0,0,0,0,0,0,0,0,0,0,0,0,0,0,0,0,0,0,0,0,0,0,0,0,
0,0,0,0,0,0,0,0,0,0,0,0,0,0,0,0,0,0,0,0,0,0,0,0,0,0,0,0,0,0,
0,0,0,0,0,0,0,0,0,0,0,0,0,0,0,0,0,0,0,0,0,0,0,0,0,0,0,0,0,0,
0,0,0,0,0,0,0,0,0,0,0,0,0,0,0,0,0,0,0,0,0,0,0,0,0,0,0,0,0,0,
0,0,0,0,0,0,0,0,0,0,0,0,0,0,0,0,0,0,0,0,0,0,0,0,0,0,0,0,0,0,
0,0,0,0,0,0,0,0,0,0,0,0,0,0,0,0,0,0,0,0,0,0,0,0,0,0,0,0,0,0
</data>
 </layer>
</map>
